**harm	**harte	**kern	**silbe	**kern	**silbe	**rhyme	**timestamp	**phrase	**leadinstrument
*M4/4	*M4/4	*ICvox	*	*ICvox	*	*	*	*	*
*	*	*VRlead	*	*VRharmonize	*	*	*	*	*
*	*	*Hstimme	*	*Nstimme	*	*	*	*	*
*A:	*A:	*A:	*	*A:	*	*	*	*	*
*	*	*M4/4	*	*M4/4	*	*	*	*	*
*	*	*clefF4	*	*clefG2	*	*	*	*	*
1r;	N	r;	.	r;	.	.	.	.	r
1r;	N	r;	.	r;	.	.	.	.	r
=1	=1	=1	=1	=1	=1	=1	=1	=1	=1
*>Label>Intro	*>Label>Intro	*>Label>Intro	*>Label>Intro	*>Label>Intro	*>Label>Intro	*>Label>Intro	*>Label>Intro	*>Label>Intro	*>Label>Intro
2IV7	D:maj7	1r	.	1r	.	.	0.21	newline	r
4iii7	C#:min7	.	.	.	.	.	.	.	r
4ii7d	B:min7/b7	.	.	.	.	.	.	.	r
=2	=2	=2	=2	=2	=2	=2	=2	=2	=2
2iii7	C#:min7	1r	.	1r	.	.	.	.	r
2vi7	F#:min7	.	.	.	.	.	.	.	r
=3	=3	=3	=3	=3	=3	=3	=3	=3	=3
2IV7	D:maj7	1r	.	1r	.	.	.	.	r
4iii7	C#:min7	.	.	.	.	.	.	.	r
4ii7d	B:min7/b7	.	.	.	.	.	.	.	r
=4	=4	=4	=4	=4	=4	=4	=4	=4	=4
2iii7	C#:min7	1r	.	1r	.	.	.	.	r
2vi7	F#:min7	.	.	.	.	.	.	.	r
=5	=5	=5	=5	=5	=5	=5	=5	=5	=5
2IV7	D:maj7	1r	.	1r	.	.	8.22	newline	r
4iii7	C#:min7	.	.	.	.	.	.	.	r
4ii7d	B:min7/b7	.	.	.	.	.	.	.	r
=6	=6	=6	=6	=6	=6	=6	=6	=6	=6
2III7	C#:7	1r	.	1r	.	.	.	.	r
2vi7	F#:min7	.	.	.	.	.	.	.	r
=7	=7	=7	=7	=7	=7	=7	=7	=7	=7
1Im7	A:11	1r	.	1r	.	.	.	.	r
=8	=8	=8	=8	=8	=8	=8	=8	=8	=8
1Im7	A:11	1r	.	1r	.	.	.	.	r
=9	=9	=9	=9	=9	=9	=9	=9	=9	=9
1Im7	A:11	1r	.	1r	.	.	17.89	newline	r
=10	=10	=10	=10	=10	=10	=10	=10	=10	=10
1Im7	A:11	2r	.	1r	.	.	.	.	r
.	.	8r	.	.	.	.	.	.	.
.	.	8F#	Do	.	.	.	.	.	.
.	.	8A	you	.	.	.	.	.	.
.	.	8B	re-	.	.	.	.	.	.
=11	=11	=11	=11	=11	=11	=11	=11	=11	=11
*>Label>Verse	*>Label>Verse	*>Label>Verse	*>Label>Verse	*>Label>Verse	*>Label>Verse	*>Label>Verse	*>Label>Verse	*>Label>Verse	*>Label>Verse
*>Letter>A	*>Letter>A	*>Letter>A	*>Letter>A	*>Letter>A	*>Letter>A	*>Letter>A	*>Letter>A	*>Letter>A	*>Letter>A
2IV7	D:maj7	8c#	-mem-	1r	.	(A	19.845	newline	voice
.	.	8c#	-ber	.	.	a)	.	.	.
.	.	2r	.	.	.	.	.	.	.
4iii7	C#:min7	.	.	.	.	.	.	.	voice
4ii7d	B:min7/b7	4r	.	.	.	.	.	.	voice
=12	=12	=12	=12	=12	=12	=12	=12	=12	=12
2iii7	C#:min7	8c#	twen-	1r	.	.	.	.	voice
.	.	8e	-ty	.	.	.	.	.	.
.	.	8f#	first	.	.	.	.	.	.
.	.	8B	night	.	.	B	.	.	.
2vi7	F#:min7	4A	_	.	.	.	.	.	voice
.	.	8c#	Sep-	.	.	.	.	.	.
.	.	8c#	-tem-	.	.	(A	.	.	.
=13	=13	=13	=13	=13	=13	=13	=13	=13	=13
2IV7	D:maj7	4c#	-ber?.	1r	.	a)	.	.	voice
.	.	2r	.	.	.	.	.	.	.
4iii7	C#:min7	.	.	.	.	.	.	.	voice
4ii7d	B:min7/b7	8A	Love	.	.	.	.	.	voice
.	.	8B	was	.	.	.	.	.	.
=14	=14	=14	=14	=14	=14	=14	=14	=14	=14
2iii7	C#:min7	8c#	chang-	1r	.	.	.	.	voice
.	.	8e	-ing	.	.	.	.	.	.
.	.	8f#	the	.	.	.	.	.	.
.	.	8B	minds	.	.	B	.	.	.
2vi7	F#:min7	8A	_	.	.	.	.	.	voice
.	.	8A	of	.	.	.	.	.	.
.	.	8c#	pre-	.	.	.	.	.	.
.	.	8c#	-ten-	.	.	(A	.	.	.
=15	=15	=15	=15	=15	=15	=15	=15	=15	=15
2IV7	D:maj7	4c#	-ders|	1r	.	a)	27.555	newline	voice
.	.	2r	.	.	.	.	.	.	.
4iii7	C#:min7	.	.	.	.	.	.	.	voice
4ii7d	B:min7/b7	8A	while	.	.	.	.	.	voice
.	.	8B	_	.	.	.	.	.	.
=16	=16	=16	=16	=16	=16	=16	=16	=16	=16
2III7	C#:7	8c#	chas-	1r	.	.	.	.	voice
.	.	8e	-ing	.	.	.	.	.	.
.	.	8f#	the	.	.	.	.	.	.
.	.	16B	clouds	.	.	.	.	.	.
.	.	16c#	_	.	.	.	.	.	.
2vi7	F#:min7	4B	_	.	.	.	.	.	voice
.	.	8A	a-	.	.	.	.	.	.
.	.	8B	-way.	.	.	.	.	.	.
=17	=17	=17	=17	=17	=17	=17	=17	=17	=17
1Im7	A:11	[1A	_	1r	.	.	.	.	voice
=18	=18	=18	=18	=18	=18	=18	=18	=18	=18
1Im7	A:11	2A]	_	1r	.	.	.	.	voice
.	.	8r	.	.	.	.	.	.	.
.	.	8c#	Our	.	.	.	.	.	.
.	.	8B	hearts	.	.	.	.	.	.
.	.	8A	were	.	.	.	.	.	.
=19	=19	=19	=19	=19	=19	=19	=19	=19	=19
2IV7	D:maj7	8c#	ring-	1r	.	(C	35.225	newline	voice
.	.	8c#	-ing	.	.	c)	.	.	.
.	.	4r	.	.	.	.	.	.	.
4iii7	C#:min7	8r	.	.	.	.	.	.	voice
.	.	8A	in	.	.	.	.	.	.
4ii7d	B:min7/b7	8B	the	.	.	.	.	.	voice
.	.	[8c#	key	.	.	.	.	.	.
=20	=20	=20	=20	=20	=20	=20	=20	=20	=20
2iii7	C#:min7	8c#]	_	1r	.	.	.	.	voice
.	.	8e	that	.	.	.	.	.	.
.	.	8f#	our	.	.	.	.	.	.
.	.	8B	souls	.	.	.	.	.	.
2vi7	F#:min7	4A	_	.	.	.	.	.	voice
.	.	8A	were	.	.	(C	.	.	.
.	.	16c#	sing-	.	.	c)	.	.	.
.	.	16d	_	.	.	.	.	.	.
=21	=21	=21	=21	=21	=21	=21	=21	=21	=21
2IV7	D:maj7	4c#	-ing|	1r	.	.	.	.	voice
.	.	2r	.	.	.	.	.	.	.
4iii7	C#:min7	.	.	.	.	.	.	.	voice
4ii7d	B:min7/b7	8A	as	.	.	.	.	.	voice
.	.	8B	we	.	.	.	.	.	.
=22	=22	=22	=22	=22	=22	=22	=22	=22	=22
2iii7	C#:min7	8c#	danced	1r	.	.	.	.	voice
.	.	8e	in	.	.	.	.	.	.
.	.	8f#	the	.	.	.	.	.	.
.	.	8B	night.	.	.	B	.	.	.
2vi7	F#:min7	4A	_	.	.	.	.	.	voice
.	.	8c#	Re-	.	.	.	.	.	.
.	.	8c#	-mem-	.	.	(A	.	.	.
=23	=23	=23	=23	=23	=23	=23	=23	=23	=23
2IV7	D:maj7	4c#	-ber	1r	.	a)	42.955	newline	voice
.	.	2r	.	.	.	.	.	.	.
4iii7	C#:min7	.	.	.	.	.	.	.	voice
4ii7d	B:min7/b7	8A	how	.	.	.	.	.	voice
.	.	8B	the	.	.	.	.	.	.
=24	=24	=24	=24	=24	=24	=24	=24	=24	=24
2III7	C#:7	8c#	stars	1r	.	.	.	.	voice
.	.	8e	stole	.	.	.	.	.	.
.	.	8f#	the	.	.	.	.	.	.
.	.	16c#	night	.	.	B	.	.	.
.	.	16B	_	.	.	.	.	.	.
2vi7	F#:min7	4A	_	.	.	.	.	.	voice
.	.	8A	a-	.	.	.	.	.	.
.	.	8B	-way.	.	.	.	.	.	.
=25	=25	=25	=25	=25	=25	=25	=25	=25	=25
1Im7	A:11	[2A	_	1r	.	.	.	.	voice
.	.	8A]	_	.	.	.	.	.	.
.	.	16F#	_	.	.	.	.	.	.
.	.	16E	_	.	.	.	.	.	.
.	.	16F#	_	.	.	.	.	.	.
.	.	16E	_	.	.	.	.	.	.
.	.	8C#	_	.	.	.	.	.	.
=26	=26	=26	=26	=26	=26	=26	=26	=26	=26
1Im7	A:11	16C#	_	8r	.	.	.	.	voice
.	.	16BB	_	.	.	.	.	.	.
.	.	8AA	_	8f#	[Ah	.	.	.	.
.	.	2r	.	8r	.	.	.	.	.
.	.	.	.	8a	ah	.	.	.	.
.	.	.	.	8r	.	.	.	.	.
.	.	.	.	8b	ah.]	.	.	.	.
.	.	4r	.	8a	_	.	.	.	.
.	.	.	.	8r	.	.	.	.	.
=27	=27	=27	=27	=27	=27	=27	=27	=27	=27
*>Letter>C	*>Letter>C	*>Letter>C	*>Letter>C	*>Letter>C	*>Letter>C	*>Letter>C	*>Letter>C	*>Letter>C	*>Letter>C
*>Label>Chorus	*>Label>Chorus	*>Label>Chorus	*>Label>Chorus	*>Label>Chorus	*>Label>Chorus	*>Label>Chorus	*>Label>Chorus	*>Label>Chorus	*>Label>Chorus
2ii7	B:min7	1r	.	4cc#	[Ba-	.	50.615	newline	voice
.	.	.	.	8dd	-de-	.	.	.	.
.	.	.	.	4.cc#	-ya.]	.	.	.	.
2V7	E:9	.	.	.	.	.	.	.	voice
.	.	.	.	4r	.	.	.	.	.
=28	=28	=28	=28	=28	=28	=28	=28	=28	=28
2iii7	C#:min7	1r	.	8cc#	Say	.	.	.	voice
.	.	.	.	8dd	do	.	.	.	.
.	.	.	.	8cc#	you	.	.	.	.
.	.	.	.	8b	re-	.	.	.	.
2vi7	F#:min7	.	.	4a	-mem-	(A	.	.	voice
.	.	.	.	8b	-ber	a)	.	.	.
.	.	.	.	8r	.	.	.	.	.
=29	=29	=29	=29	=29	=29	=29	=29	=29	=29
2ii7	B:min7	1r	.	4cc#	[Ba-	.	.	.	voice
.	.	.	.	8dd	-de-	.	.	.	.
.	.	.	.	4.cc#	-ya]	.	.	.	.
2V7	E:9	.	.	.	.	.	.	.	voice
.	.	.	.	4r	.	.	.	.	.
=30	=30	=30	=30	=30	=30	=30	=30	=30	=30
2I7b	A:maj9/3	1r	.	8cc#	danc-	.	.	.	voice
.	.	.	.	8dd	-ing	.	.	.	.
.	.	.	.	8cc#	in	.	.	.	.
.	.	.	.	8b	Sep-	.	.	.	.
2vi7	F#:min7	.	.	4a	-tem-	(A	.	.	voice
.	.	.	.	8b	-ber?.	a)	.	.	.
.	.	.	.	8r	.	.	.	.	.
=31	=31	=31	=31	=31	=31	=31	=31	=31	=31
2ii7	B:min7	1r	.	4cc#	[Ba-	.	58.33	newline	voice
.	.	.	.	8dd	-de-	.	.	.	.
.	.	.	.	4.cc#	-ya]	.	.	.	.
2V7	E:9	.	.	.	.	.	.	.	voice
.	.	.	.	4r	.	.	.	.	.
=32	=32	=32	=32	=32	=32	=32	=32	=32	=32
2iii7	C#:min7	1r	.	8cc#	ne-	.	.	.	voice
.	.	.	.	8dd	-ver	.	.	.	.
.	.	.	.	8cc#	was	.	.	.	.
.	.	.	.	8b	a	.	.	.	.
2vi7	F#:min7	.	.	4a	cloud-	.	.	.	voice
.	.	.	.	8f#	-y	.	.	.	.
.	.	.	.	8b	day.	D	.	.	.
=33	=33	=33	=33	=33	=33	=33	=33	=33	=33
1I	A:sus4(b7,9)	1r	.	[1a	_	.	.	.	voice
=34	=34	=34	=34	=34	=34	=34	=34	=34	=34
1I	A:sus4(b7,9)	1r	.	2a]	_	.	.	.	voice
.	.	.	.	2r	.	.	.	.	.
=35	=35	=35	=35	=35	=35	=35	=35	=35	=35
*>Letter>A	*>Letter>A	*>Letter>A	*>Letter>A	*>Letter>A	*>Letter>A	*>Letter>A	*>Letter>A	*>Letter>A	*>Letter>A
*>Label>Verse	*>Label>Verse	*>Label>Verse	*>Label>Verse	*>Label>Verse	*>Label>Verse	*>Label>Verse	*>Label>Verse	*>Label>Verse	*>Label>Verse
2IV7	D:maj7	4A	[Ba-	4a	[Ba-	.	65.945	newline	voice
.	.	8F#	-du-	8f#	-du-	.	.	.	.
.	.	8E	-a,	8e	-a,	.	.	.	.
4iii7	C#:min7	4A	Ba-	4a	ba-	.	.	.	voice
4I	A:maj6	8F#	-du-	8f#	-du-	.	.	.	voice
.	.	8E	-a,	8e	-a,	.	.	.	.
=36	=36	=36	=36	=36	=36	=36	=36	=36	=36
2iii7	C#:min7	4A	Ba-	8r	.	.	.	.	voice
.	.	.	.	8a	ba-	.	.	.	.
.	.	8F#	-du-	8f#	-du-	.	.	.	.
.	.	8E	-a,	8e	-a,	.	.	.	.
2vi7	F#:min11	4A	Ba-	4a	ba-	.	.	.	voice
.	.	8F#	-du-	8f#	-du-	.	.	.	.
.	.	8E	-a,	8e	-a,	.	.	.	.
=37	=37	=37	=37	=37	=37	=37	=37	=37	=37
2IV7	D:maj7	4A	Ba-	4a	Ba-	.	.	.	voice
.	.	8F#	-du-	8f#	-du-	.	.	.	.
.	.	8E	-a,	8e	-a,	.	.	.	.
4iii7	C#:min7	4A	Ba-	4a	ba-	.	.	.	voice
4I	A:maj6	8F#	-du-	8f#	-du-	.	.	.	voice
.	.	8E	-a,	8e	-a,	.	.	.	.
=38	=38	=38	=38	=38	=38	=38	=38	=38	=38
2iii7	C#:min7	4A	Ba-	8r	.	.	.	.	voice
.	.	.	.	8a	ba-	.	.	.	.
.	.	8F#	-du-	8f#	-du-	.	.	.	.
.	.	8E	-a,	8e	-a,	.	.	.	.
2vi7	F#:min11	4A	Ba-	4a	ba-	.	.	.	voice
.	.	8F#	-du-	8f#	-du-	.	.	.	.
.	.	8E	-a,	8e	-a,	.	.	.	.
=39	=39	=39	=39	=39	=39	=39	=39	=39	=39
2ii7	B:min7	4A	Ba-	4a	Ba-	.	73.495	newline	voice
.	.	8F#	-du-	8f#	-du-	.	.	.	.
.	.	8E	-a,	8e	-a,	.	.	.	.
2V7	E:9	4A	Ba-	4a	ba-	.	.	.	voice
.	.	8F#	-du-	8f#	-du-	.	.	.	.
.	.	8E	-a,	8e	-a,	.	.	.	.
=40	=40	=40	=40	=40	=40	=40	=40	=40	=40
2iii7	C#:min7	4A	Ba-	8r	.	.	.	.	voice
.	.	.	.	8b	Ba-	.	.	.	.
.	.	8F#	-du-	8f#	-du-	.	.	.	.
.	.	8E	-a,	4.a	-a.]	.	.	.	.
2vi7	F#:min7	4A	ba-	.	.	.	.	.	voice
.	.	8F#	-du	4r	.	.	.	.	.
.	.	16C#	way.]	.	.	D	.	.	.
.	.	16BB	_	.	.	.	.	.	.
=41	=41	=41	=41	=41	=41	=41	=41	=41	=41
1Im7	A:11	2AA	_	1r	.	.	.	.	voice
.	.	2r	.	.	.	.	.	.	.
=42	=42	=42	=42	=42	=42	=42	=42	=42	=42
1Im7	A:11	2r	.	1r	.	.	.	.	voice
.	.	8r	.	.	.	.	.	.	.
.	.	8c#	My	.	.	.	.	.	.
.	.	8B	thoughts	.	.	.	.	.	.
.	.	8A	are	.	.	.	.	.	.
=43	=43	=43	=43	=43	=43	=43	=43	=43	=43
2IV7	D:maj7	8c#	with	1r	.	.	81.025	newline	voice
.	.	8c#	you	.	.	.	.	.	.
.	.	4r	.	.	.	.	.	.	.
4iii7	C#:min7	8r	.	.	.	.	.	.	voice
.	.	8A	Hold-	.	.	.	.	.	.
4ii7d	B:min7/b7	8B	-ing	.	.	.	.	.	voice
.	.	[8c#	hands	.	.	.	.	.	.
=44	=44	=44	=44	=44	=44	=44	=44	=44	=44
2iii7	C#:min7	8c#]	_	1r	.	.	.	.	voice
.	.	8e	with	.	.	.	.	.	.
.	.	8f#	your	.	.	.	.	.	.
.	.	8B	heart	.	.	.	.	.	.
2vi7	F#:min7	4A	_	.	.	.	.	.	voice
.	.	8c#	to	.	.	.	.	.	.
.	.	[8d	see	.	.	.	.	.	.
=45	=45	=45	=45	=45	=45	=45	=45	=45	=45
2IV7	D:maj7	8d]	_	1r	.	.	.	.	voice
.	.	8c#	you.	.	.	.	.	.	.
.	.	2r	.	.	.	.	.	.	.
4iii7	C#:min7	.	.	.	.	.	.	.	voice
4ii7d	B:min7/b7	8A	On-	.	.	.	.	.	voice
.	.	8B	-ly	.	.	.	.	.	.
=46	=46	=46	=46	=46	=46	=46	=46	=46	=46
2iii7	C#:min7	8c#	blue	1r	.	.	.	.	voice
.	.	8e	talk	.	.	.	.	.	.
.	.	8f#	and	.	.	.	.	.	.
.	.	16c#	love.	.	.	.	.	.	.
.	.	16B	_	.	.	.	.	.	.
2vi7	F#:min7	4A	_	.	.	.	.	.	voice
.	.	8c#	Re-	.	.	.	.	.	.
.	.	8c#	-mem-	.	.	(A	.	.	.
=47	=47	=47	=47	=47	=47	=47	=47	=47	=47
2IV7	D:maj7	4c#	-ber	1r	.	a)	88.65	newline	voice
.	.	2r	.	.	.	.	.	.	.
4iii7	C#:min7	.	.	.	.	.	.	.	voice
4ii7d	B:min7/b7	8A	how	.	.	.	.	.	voice
.	.	8B	we	.	.	.	.	.	.
=48	=48	=48	=48	=48	=48	=48	=48	=48	=48
2III7	C#:7	8c#	knew	1r	.	.	.	.	voice
.	.	8e	love	.	.	.	.	.	.
.	.	8f#	was	.	.	.	.	.	.
.	.	16B	here	.	.	.	.	.	.
.	.	16c#	_	.	.	.	.	.	.
2vi7	F#:min7	4B	_	.	.	.	.	.	voice
.	.	8A	to	.	.	.	.	.	.
.	.	8B	stay.	.	.	D	.	.	.
=49	=49	=49	=49	=49	=49	=49	=49	=49	=49
1Im7	A:11	[1A	_	1r	.	.	.	.	voice
=50	=50	=50	=50	=50	=50	=50	=50	=50	=50
1Im7	A:11	2A]	_	1r	.	.	.	.	voice
.	.	4r	.	.	.	.	.	.	.
.	.	8c#	Now	.	.	.	.	.	.
.	.	8e	De-	.	.	.	.	.	.
=51	=51	=51	=51	=51	=51	=51	=51	=51	=51
2IV7	D:maj7	8e	-cem-	1r	.	(A	96.25	newline	voice
.	.	4.e	-ber	.	.	a)	.	.	.
4iii7	C#:min7	8r	.	.	.	.	.	.	voice
.	.	8c#	found	.	.	.	.	.	.
4ii7d	B:min7/b7	8e	the	.	.	.	.	.	voice
.	.	8g	love	.	.	.	.	.	.
=52	=52	=52	=52	=52	=52	=52	=52	=52	=52
2iii7	C#:min7	4f#	_	1r	.	.	.	.	voice
.	.	8e	we	.	.	.	.	.	.
.	.	4e	shared	.	.	.	.	.	.
2vi7	F#:min7	.	.	.	.	.	.	.	voice
.	.	8e	in	.	.	.	.	.	.
.	.	8f#	Sep-	.	.	.	.	.	.
.	.	8a	-tem-	.	.	(A	.	.	.
=53	=53	=53	=53	=53	=53	=53	=53	=53	=53
2IV7	D:maj7	4.f#	-ber.	1r	.	a)	.	.	voice
.	.	4r	.	.	.	.	.	.	.
4iii7	C#:min7	.	.	.	.	.	.	.	voice
.	.	8c#	On-	.	.	.	.	.	.
4ii7d	B:min7/b7	8e	-ly	.	.	.	.	.	voice
.	.	8g	blue	.	.	.	.	.	.
=54	=54	=54	=54	=54	=54	=54	=54	=54	=54
2iii7	C#:min7	8f#	_	1r	.	.	.	.	voice
.	.	8e	talk	.	.	.	.	.	.
.	.	8r	.	.	.	.	.	.	.
.	.	4.f#	love.	.	.	.	.	.	.
2vi7	F#:min7	.	.	.	.	.	.	.	voice
.	.	8c	Re-	.	.	.	.	.	.
.	.	8c	-mem-	.	.	(A	.	.	.
=55	=55	=55	=55	=55	=55	=55	=55	=55	=55
2IV7	D:maj7	8B	-ber	1r	.	a)	103.89	newline	voice
.	.	8A	_	.	.	.	.	.	.
.	.	2r	.	.	.	.	.	.	.
4iii7	C#:min7	.	.	.	.	.	.	.	voice
4ii7d	B:min7/b7	4r	.	.	.	.	.	.	voice
=56	=56	=56	=56	=56	=56	=56	=56	=56	=56
2III7	C#:7	8c#	True	1r	.	.	.	.	voice
.	.	8e	love	.	.	.	.	.	.
.	.	8f#	we	.	.	.	.	.	.
.	.	16B	share	.	.	.	.	.	.
.	.	16c#	_	.	.	.	.	.	.
2vi7	F#:min7	4B	_	.	.	.	.	.	voice
.	.	8A	to	.	.	.	.	.	.
.	.	8B	day	.	.	D	.	.	.
=57	=57	=57	=57	=57	=57	=57	=57	=57	=57
1Im7	A:11	2.A	_	1r	.	.	.	.	voice
.	.	[4A	_	.	.	.	.	.	.
=58	=58	=58	=58	=58	=58	=58	=58	=58	=58
1Im7	A:11	2A]	_	8r	.	.	.	.	voice
.	.	.	.	8f#	[Ah	.	.	.	.
.	.	.	.	8r	.	.	.	.	.
.	.	.	.	8a	ah	.	.	.	.
.	.	4a	_	8r	.	.	.	.	.
.	.	.	.	8b	ah.]	.	.	.	.
.	.	8r	.	8a	_	.	.	.	.
.	.	[8a	yes	8r	.	.	.	.	.
=59	=59	=59	=59	=59	=59	=59	=59	=59	=59
*>Letter>C	*>Letter>C	*>Letter>C	*>Letter>C	*>Letter>C	*>Letter>C	*>Letter>C	*>Letter>C	*>Letter>C	*>Letter>C
*>Label>Chorus	*>Label>Chorus	*>Label>Chorus	*>Label>Chorus	*>Label>Chorus	*>Label>Chorus	*>Label>Chorus	*>Label>Chorus	*>Label>Chorus	*>Label>Chorus
2ii7	B:min7	4a]	_	4cc#	[Ba-	.	111.46	newline	voice
.	.	8f#	_	8dd	-de-	.	.	.	.
.	.	4.a	yes.	4.cc#	-ya.]	.	.	.	.
2V7	E:9	.	.	.	.	.	.	.	voice
.	.	4r	.	4r	.	.	.	.	.
=60	=60	=60	=60	=60	=60	=60	=60	=60	=60
2iii7	C#:min7	1r	.	8cc#	Say	.	.	.	voice
.	.	.	.	8dd	do	.	.	.	.
.	.	.	.	8cc#	you	.	.	.	.
.	.	.	.	8b	re-	.	.	.	.
2vi7	F#:min7	.	.	4a	-mem-	.	.	.	voice
.	.	.	.	8b	-ber	.	.	.	.
.	.	.	.	8r	.	.	.	.	.
=61	=61	=61	=61	=61	=61	=61	=61	=61	=61
2ii7	B:min7	2r	.	4cc#	[Ba-	.	.	.	voice
.	.	.	.	8dd	-de-	.	.	.	.
.	.	.	.	4.cc#	-ya]	.	.	.	.
2V7	E:9	8e	[Ooh-	.	.	.	.	.	voice
.	.	[4.f#	-oh.]	.	.	.	.	.	.
.	.	.	.	4r	.	.	.	.	.
=62	=62	=62	=62	=62	=62	=62	=62	=62	=62
2I7b	A:maj9/3	2f#]	_	8cc#	danc-	.	.	.	voice
.	.	.	.	8dd	-ing	.	.	.	.
.	.	.	.	8cc#	in	.	.	.	.
.	.	.	.	8b	Sep-	.	.	.	.
2vi7	F#:min7	8f#	_	4a	-tem-	.	.	.	voice
.	.	8e	_	.	.	.	.	.	.
.	.	8c#	_	8b	-ber?.	.	.	.	.
.	.	[8e	_	8r	.	.	.	.	.
=63	=63	=63	=63	=63	=63	=63	=63	=63	=63
2ii7	B:min7	4e]	_	4cc#	[Ba-	.	119.08	newline	voice
.	.	4r	.	8dd	-de-	.	.	.	.
.	.	.	.	4.cc#	-ya]	.	.	.	.
2V7	E:9	8r	.	.	.	.	.	.	voice
.	.	8f#	[Eh-	.	.	.	.	.	.
.	.	16f#	-hey.]	4r	.	.	.	.	.
.	.	16e	_	.	.	.	.	.	.
.	.	8f#	_	.	.	.	.	.	.
=64	=64	=64	=64	=64	=64	=64	=64	=64	=64
2iii7	C#:min7	4e	_	8cc#	ne-	.	.	.	voice
.	.	.	.	8dd	-ver	.	.	.	.
.	.	2r	.	8cc#	was	.	.	.	.
.	.	.	.	8b	a	.	.	.	.
2vi7	F#:min7	.	.	4a	cloud-	.	.	.	voice
.	.	4r	.	8f#	-y	.	.	.	.
.	.	.	.	8b	day.	D	.	.	.
=65	=65	=65	=65	=65	=65	=65	=65	=65	=65
1Im7	A:11	1r	.	[1a	_	.	.	.	voice
=66	=66	=66	=66	=66	=66	=66	=66	=66	=66
*	*	*clefG2	*	*	*	*	*	*	*
1Im7	A:11	2r	.	2a]	_	.	.	.	voice
.	.	8r	.	8r	.	.	.	.	.
.	.	8f#	There	8f#	There	.	.	.	.
.	.	8a	was	8a	was	.	.	.	.
.	.	8b	a	8b	a	.	.	.	.
=67	=67	=67	=67	=67	=67	=67	=67	=67	=67
2ii7	B:min7	4cc#	Ba-	4cc#	Ba-	.	126.59	newline	voice
.	.	8dd	-de-	8dd	-de-	.	.	.	.
.	.	4.cc#	-ya	4.cc#	-ya.	.	.	.	.
2V7	E:9	.	.	.	.	.	.	.	voice
.	.	8b	de-	4r	.	.	.	.	.
.	.	[8a	-ya	.	.	.	.	.	.
=68	=68	=68	=68	=68	=68	=68	=68	=68	=68
2iii7	C#:min7	4a]	_	8cc#	Say	.	.	.	voice
.	.	.	.	8dd	do	.	.	.	.
.	.	8b	de-	8cc#	you	.	.	.	.
.	.	4.f#	-ya.	8b	re-	(A	.	.	.
2vi7	F#:min7	.	.	4a	-mem-	.	.	.	voice
.	.	4r	.	8b	-ber	a)	.	.	.
.	.	.	.	8r	.	.	.	.	.
=69	=69	=69	=69	=69	=69	=69	=69	=69	=69
2ii7	B:min7	4cc#	[Ba-	4cc#	[Ba-	.	.	.	voice
.	.	8dd	-de-	8dd	-de-	.	.	.	.
.	.	4.cc#	-ya	4.cc#	-ya]	.	.	.	.
2V7	E:9	.	.	.	.	.	.	.	voice
.	.	8b	de-	4r	.	.	.	.	.
.	.	[8a	-ya	.	.	.	.	.	.
=70	=70	=70	=70	=70	=70	=70	=70	=70	=70
2I7b	A:maj9/3	4a]	_	8cc#	danc-	.	.	.	voice
.	.	.	.	8dd	-ing	.	.	.	.
.	.	8b	de-	8cc#	in	.	.	.	.
.	.	4.f#	-ya.]	8b	Sep-	.	.	.	.
2vi7	F#:min7	.	.	4a	-tem-	(A	.	.	voice
.	.	4r	.	8b	-ber?.	a)	.	.	.
.	.	.	.	8r	.	.	.	.	.
=71	=71	=71	=71	=71	=71	=71	=71	=71	=71
2ii7	B:min7	4cc#	[Ba-	4cc#	[Ba-	.	134.19	newline	voice
.	.	8dd	-de-	8dd	-de-	.	.	.	.
.	.	4.cc#	-ya	4.cc#	-ya]	.	.	.	.
2V7	E:9	.	.	.	.	.	.	.	voice
.	.	8b	de-	4r	.	.	.	.	.
.	.	[8a	-ya	.	.	.	.	.	.
=72	=72	=72	=72	=72	=72	=72	=72	=72	=72
2iii7	C#:min7	4a]	_	8cc#	Gol-	.	.	.	voice
.	.	.	.	8dd	-den	.	.	.	.
.	.	8b	de-	8cc#	dreams	.	.	.	.
.	.	4f#	-ya.	8b	were	.	.	.	.
2vi7	F#:min7	.	.	4a	shi-	.	.	.	voice
.	.	8r	.	.	.	.	.	.	.
.	.	8b	de-	8f#	-ny	.	.	.	.
.	.	[8ee	-ya.]	8b	days.	D	.	.	.
=73	=73	=73	=73	=73	=73	=73	=73	=73	=73
1Im7	A:11	1ee_	_	[1a	_	.	.	.	voice
=74	=74	=74	=74	=74	=74	=74	=74	=74	=74
1Im7	A:11	2ee]	_	2a]	_	.	.	.	voice
.	.	2r	.	2r	.	.	.	.	.
=75	=75	=75	=75	=75	=75	=75	=75	=75	=75
*>Letter>D	*>Letter>D	*>Letter>D	*>Letter>D	*>Letter>D	*>Letter>D	*>Letter>D	*>Letter>D	*>Letter>D	*>Letter>D
*>Label>Bridge	*>Label>Bridge	*>Label>Bridge	*>Label>Bridge	*>Label>Bridge	*>Label>Bridge	*>Label>Bridge	*>Label>Bridge	*>Label>Bridge	*>Label>Bridge
2ii7	B:min7	8r	.	1r	.	.	141.775	newline	voice
.	.	8e	The	.	.	.	.	.	.
.	.	8r	.	.	.	.	.	.	.
.	.	8e	bell	.	.	.	.	.	.
2V7	E:9	8r	.	.	.	.	.	.	voice
.	.	8e	was	.	.	.	.	.	.
.	.	8r	.	.	.	.	.	.	.
.	.	8g	ring-	.	.	(C	.	.	.
=76	=76	=76	=76	=76	=76	=76	=76	=76	=76
2iii7	C#:min7	4f#	-ing.	1r	.	c)	.	.	voice
.	.	8e	_	.	.	.	.	.	.
.	.	4r	.	.	.	.	.	.	.
2vi7	F#:min7	.	.	.	.	.	.	.	voice
.	.	8e	a-	.	.	.	.	.	.
.	.	8e	-ha.	.	.	.	.	.	.
.	.	8f#	_	.	.	.	.	.	.
=77	=77	=77	=77	=77	=77	=77	=77	=77	=77
2ii7	B:min7	8r	.	1r	.	.	.	.	voice
.	.	8e	Our	.	.	.	.	.	.
.	.	8r	.	.	.	.	.	.	.
.	.	[8a	souls	.	.	.	.	.	.
2V7	E:9	4.a]	_	.	.	.	.	.	voice
.	.	8f#	were	.	.	.	.	.	.
=78	=78	=78	=78	=78	=78	=78	=78	=78	=78
2I7b	A:maj9/3	8g	sing-	1r	.	(C	.	.	voice
.	.	16f#	-ing.	.	.	c)	.	.	.
.	.	16g	_	.	.	.	.	.	.
.	.	[4f#	_	.	.	.	.	.	.
2vi7	F#:min7	8f#]	_	.	.	.	.	.	voice
.	.	4e	_	.	.	.	.	.	.
.	.	8r	.	.	.	.	.	.	.
=79	=79	=79	=79	=79	=79	=79	=79	=79	=79
2ii7	B:min7	8r	.	1r	.	.	149.37	newline	voice
.	.	8c#	Do	.	.	.	.	.	.
.	.	8e	you	.	.	.	.	.	.
.	.	8c#	re-	.	.	.	.	.	.
2V7	E:9	8e	-mem-	.	.	(A	.	.	voice
.	.	4.f#	-ber?.	.	.	a)	.	.	.
=80	=80	=80	=80	=80	=80	=80	=80	=80	=80
2iii7	C#:min7	8c#	ne-	1r	.	.	.	.	voice
.	.	8e	-ver	.	.	.	.	.	.
.	.	8f#	a	.	.	.	.	.	.
.	.	16B	cloud-	.	.	.	.	.	.
.	.	16c#	_	.	.	.	.	.	.
2vi7	F#:min7	4B	_	.	.	.	.	.	voice
.	.	8A	-y	.	.	.	.	.	.
.	.	16B	day	.	.	D	.	.	.
.	.	[16F#	_	.	.	.	.	.	.
=81	=81	=81	=81	=81	=81	=81	=81	=81	=81
1Im7	A:11	8F#]	_	1r	.	.	.	.	voice
.	.	4r	.	.	.	.	.	.	.
.	.	[8A	yaow.	.	.	.	.	.	.
.	.	4A]	_	.	.	.	.	.	.
.	.	4r	.	.	.	.	.	.	.
=82	=82	=82	=82	=82	=82	=82	=82	=82	=82
1Im7	A:11	2r	.	2r	.	.	.	.	voice
.	.	8r	.	8r	.	.	.	.	.
.	.	8f#	And	8f#	And	.	.	.	.
.	.	8a	we	8a	we	.	.	.	.
.	.	8b	said	8b	said	.	.	.	.
=83	=83	=83	=83	=83	=83	=83	=83	=83	=83
*>Letter>C	*>Letter>C	*>Letter>C	*>Letter>C	*>Letter>C	*>Letter>C	*>Letter>C	*>Letter>C	*>Letter>C	*>Letter>C
*>Label>Chorus	*>Label>Chorus	*>Label>Chorus	*>Label>Chorus	*>Label>Chorus	*>Label>Chorus	*>Label>Chorus	*>Label>Chorus	*>Label>Chorus	*>Label>Chorus
2ii7	B:min7	4cc#	Ba-	4cc#	Ba-	.	156.925	newline	voice
.	.	8dd	-de-	8dd	-de-	.	.	.	.
.	.	4.cc#	-ya	4.cc#	-ya.	.	.	.	.
2V7	E:9	.	.	.	.	.	.	.	voice
.	.	8b	de-	4r	.	.	.	.	.
.	.	[8a	-ya	.	.	.	.	.	.
=84	=84	=84	=84	=84	=84	=84	=84	=84	=84
2iii7	C#:min7	4a]	_	8cc#	Say	.	.	.	voice
.	.	.	.	8dd	do	.	.	.	.
.	.	8b	de-	8cc#	you	.	.	.	.
.	.	4.f#	-ya.	8b	re-	.	.	.	.
2vi7	F#:min7	.	.	4a	-mem-	(A	.	.	voice
.	.	4r	.	8b	-ber	a)	.	.	.
.	.	.	.	8r	.	.	.	.	.
=85	=85	=85	=85	=85	=85	=85	=85	=85	=85
2ii7	B:min7	4cc#	[Ba-	4cc#	[Ba-	.	.	.	voice
.	.	8dd	-de-	8dd	-de-	.	.	.	.
.	.	4.cc#	-ya	4.cc#	-ya]	.	.	.	.
2V7	E:9	.	.	.	.	.	.	.	voice
.	.	8b	de-	4r	.	.	.	.	.
.	.	[8a	-ya	.	.	.	.	.	.
=86	=86	=86	=86	=86	=86	=86	=86	=86	=86
2I7b	A:maj9/3	4a]	_	8cc#	danc-	.	.	.	voice
.	.	.	.	8dd	-ing	.	.	.	.
.	.	8b	de-	8cc#	in	.	.	.	.
.	.	4.f#	-ya]	8b	Sep-	.	.	.	.
2vi7	F#:min7	.	.	4a	-tem-	(A	.	.	voice
.	.	4r	.	8b	-ber?.	a)	.	.	.
.	.	.	.	8r	.	.	.	.	.
=87	=87	=87	=87	=87	=87	=87	=87	=87	=87
2ii7	B:min7	4cc#	[Ba-	4cc#	[Ba-	.	164.5	newline	voice
.	.	8dd	-de-	8dd	-de-	.	.	.	.
.	.	4.cc#	-ya	4.cc#	-ya]	.	.	.	.
2V7	E:9	.	.	.	.	.	.	.	voice
.	.	8b	de-	4r	.	.	.	.	.
.	.	[8a	-ya	.	.	.	.	.	.
=88	=88	=88	=88	=88	=88	=88	=88	=88	=88
2iii7	C#:min7	4a]	_	8cc#	ne-	.	.	.	voice
.	.	.	.	8dd	-ver	.	.	.	.
.	.	8b	de-	8cc#	was	.	.	.	.
.	.	4f#	-ya.	8b	a	.	.	.	.
2vi7	F#:min7	.	.	4a	cloud-	.	.	.	voice
.	.	8r	.	.	.	.	.	.	.
.	.	8b	de-	8f#	-y	.	.	.	.
.	.	[8ee	-ya]	8b	day.	D	.	.	.
=89	=89	=89	=89	=89	=89	=89	=89	=89	=89
1Im7	A:11	1ee_	_	[1a	_	.	.	.	voice
=90	=90	=90	=90	=90	=90	=90	=90	=90	=90
1Im7	A:11	2ee]	_	2a]	_	.	.	.	voice
.	.	8r	.	8r	.	.	.	.	.
.	.	8f#	And	8f#	And	.	.	.	.
.	.	8a	we	8a	we	.	.	.	.
.	.	8b	said	8b	said	.	.	.	.
=91	=91	=91	=91	=91	=91	=91	=91	=91	=91
2ii7	B:min7	4cc#	Ba-	4cc#	Ba-	.	172.03	newline	voice
.	.	8dd	-de-	8dd	-de-	.	.	.	.
.	.	4.cc#	-ya	4.cc#	-ya.	.	.	.	.
2V7	E:9	.	.	.	.	.	.	.	voice
.	.	8b	de-	4r	.	.	.	.	.
.	.	[8a	-ya	.	.	.	.	.	.
=92	=92	=92	=92	=92	=92	=92	=92	=92	=92
2iii7	C#:min7	4a]	_	8cc#	Say	.	.	.	voice
.	.	.	.	8dd	do	.	.	.	.
.	.	8b	de-	8cc#	you	.	.	.	.
.	.	4.f#	-ya.	8b	re-	.	.	.	.
2vi7	F#:min7	.	.	4a	-mem-	(A	.	.	voice
.	.	4r	.	8b	-ber	a)	.	.	.
.	.	.	.	8r	.	.	.	.	.
=93	=93	=93	=93	=93	=93	=93	=93	=93	=93
2ii7	B:min7	4cc#	[Ba-	4cc#	[Ba-	.	.	.	voice
.	.	8dd	-de-	8dd	-de-	.	.	.	.
.	.	4.cc#	-ya	4.cc#	-ya]	.	.	.	.
2V7	E:9	.	.	.	.	.	.	.	voice
.	.	8b	de-	4r	.	.	.	.	.
.	.	[8a	-ya	.	.	.	.	.	.
=94	=94	=94	=94	=94	=94	=94	=94	=94	=94
2I7b	A:maj9/3	4a]	_	8cc#	danc-	.	.	.	voice
.	.	.	.	8dd	-ing	.	.	.	.
.	.	8b	de-	8cc#	in	.	.	.	.
.	.	4.f#	-ya.]	8b	Sep-	.	.	.	.
2vi7	F#:min7	.	.	4a	-tem-	(A	.	.	voice
.	.	4r	.	8b	-ber?.	a)	.	.	.
.	.	.	.	8r	.	.	.	.	.
=95	=95	=95	=95	=95	=95	=95	=95	=95	=95
2ii7	B:min7	4cc#	[Ba-	4cc#	Ba-	.	179.53	newline	voice
.	.	8dd	-de-	8dd	-de-	.	.	.	.
.	.	4.cc#	-ya	4.cc#	-ya	.	.	.	.
2V7	E:9	.	.	.	.	.	.	.	voice
.	.	8b	de-	4r	.	.	.	.	.
.	.	[8a	-ya	.	.	.	.	.	.
=96	=96	=96	=96	=96	=96	=96	=96	=96	=96
2iii7	C#:min7	4a]	_	8cc#	gol-	.	.	.	voice
.	.	.	.	8dd	-den	.	.	.	.
.	.	8b	de-	8cc#	dreams	.	.	.	.
.	.	4f#	-ya	8b	were	.	.	.	.
2vi7	F#:min7	.	.	4a	shi-	.	.	.	voice
.	.	8r	.	.	.	.	.	.	.
.	.	8b	de-	8f#	-ny	.	.	.	.
.	.	[8ee	-ya.]	8b	days.	D	.	.	.
=97	=97	=97	=97	=97	=97	=97	=97	=97	=97
1Im7	A:11	1ee_	_	[1a	_	.	.	.	voice
=98	=98	=98	=98	=98	=98	=98	=98	=98	=98
1Im7	A:11	2ee]	_	2a]	_	.	.	.	voice
.	.	2r	.	2r	.	.	.	.	.
=99	=99	=99	=99	=99	=99	=99	=99	=99	=99
2ii7	B:min7	4cc#	[Ba-	4cc#	[Ba-	.	187.065	newline	voice
.	.	8dd	-de-	8dd	-de-	.	.	.	.
.	.	4.cc#	-ya	4.cc#	-ya	.	.	.	.
2V7	E:9	.	.	.	.	.	.	.	voice
.	.	8b	de-	8b	de-	.	.	.	.
.	.	[8a	-ya	[8a	-ya	.	.	.	.
=100	=100	=100	=100	=100	=100	=100	=100	=100	=100
2iii7	C#:min7	4a]	_	4a]	_	.	.	.	voice
.	.	8b	de-	8b	de-	.	.	.	.
.	.	4.f#	-ya.]	4.f#	-ya.]	.	.	.	.
2vi7	F#:min7	.	.	.	.	.	.	.	voice
.	.	4r	.	4r	.	.	.	.	.
=101	=101	=101	=101	=101	=101	=101	=101	=101	=101
2ii7	B:min7	4cc#	[Ba-	4cc#	[Ba-	.	.	.	voice
.	.	8dd	-de-	8dd	-de-	.	.	.	.
.	.	4.cc#	-ya	4.cc#	-ya	.	.	.	.
2V7	E:9	.	.	.	.	.	.	.	voice
.	.	8b	de-	8b	de-	.	.	.	.
.	.	[8a	-ya	[8a	-ya	.	.	.	.
=102	=102	=102	=102	=102	=102	=102	=102	=102	=102
2I7b	A:maj9/3	4a]	_	4a]	_	.	.	.	voice
.	.	8b	de-	8b	de-	.	.	.	.
.	.	4.f#	-ya.]	4.f#	-ya.]	.	.	.	.
2vi7	F#:min7	.	.	.	.	.	.	.	voice
.	.	4r	.	4r	.	.	.	.	.
=103	=103	=103	=103	=103	=103	=103	=103	=103	=103
2ii7	B:min7	4cc#	[Ba-	4cc#	[Ba-	.	194.54	newline	voice
.	.	8dd	-de-	8dd	-de-	.	.	.	.
.	.	4.cc#	-ya	4.cc#	-ya	.	.	.	.
2V7	E:9	.	.	.	.	.	.	.	voice
.	.	8b	de-	8b	de-	.	.	.	.
.	.	[8a	-ya	[8a	-ya	.	.	.	.
=104	=104	=104	=104	=104	=104	=104	=104	=104	=104
2iii7	C#:min7	4a]	_	4a]	_	.	.	.	voice
.	.	8b	de-	8b	de-	.	.	.	.
.	.	4f#	-ya	4f#	-ya	.	.	.	.
2vi7	F#:min7	.	.	.	.	.	.	.	voice
.	.	8r	.	8r	.	.	.	.	.
.	.	8b	de-	8b	de-	.	.	.	.
.	.	[8ee	-ya.]	[8a	-ya.]	.	.	.	.
=105	=105	=105	=105	=105	=105	=105	=105	=105	=105
1Im7	A:11	1ee_	_	1a_	_	.	.	.	voice
=106	=106	=106	=106	=106	=106	=106	=106	=106	=106
1Im7	A:11	2ee]	_	2a]	_	.	.	.	voice
.	.	2r	.	2r	.	.	.	.	.
=107	=107	=107	=107	=107	=107	=107	=107	=107	=107
2ii7	B:min7	4cc#	[Ba-	4cc#	[Ba-	.	202	newline	voice
.	.	8dd	-de-	8dd	-de-	.	.	.	.
.	.	4.cc#	-ya	4.cc#	-ya	.	.	.	.
2V7	E:9	.	.	.	.	.	.	.	voice
.	.	8b	de-	8b	de-	.	.	.	.
.	.	[8a	-ya	[8a	-ya	.	.	.	.
=108	=108	=108	=108	=108	=108	=108	=108	=108	=108
2iii7	C#:min7	4a]	_	4a]	_	.	.	.	voice
.	.	8b	de-	8b	de-	.	.	.	.
.	.	4.f#	-ya]	4.f#	-ya]	.	.	.	.
2vi7	F#:min7	.	.	.	.	.	.	.	voice
.	.	4r	.	4r	.	.	.	.	.
=109	=109	=109	=109	=109	=109	=109	=109	=109	=109
2ii7	B:min7	4cc#	[Ba-	4cc#	[Ba-	.	.	.	voice
.	.	8dd	-de-	8dd	-de-	.	.	.	.
.	.	4.cc#	-ya	4.cc#	-ya	.	.	.	.
2V7	E:9	.	.	.	.	.	.	.	voice
.	.	8b	de-	8b	de-	.	.	.	.
.	.	[8a	-ya	[8a	-ya	.	.	.	.
=110	=110	=110	=110	=110	=110	=110	=110	=110	=110
2I7b	A:maj9/3	4a]	_	4a]	_	.	.	.	voice
.	.	8b	de-	8b	de-	.	.	.	.
.	.	4.f#	-ya]	4.f#	-ya]	.	.	.	.
2vi7	F#:min7	.	.	.	.	.	.	.	voice
.	.	4r	.	4r	.	.	.	.	.
=111	=111	=111	=111	=111	=111	=111	=111	=111	=111
2ii7	B:min7	4cc#	[Ba-	4cc#	[Ba-	.	209.47	newline	voice
.	.	8dd	-de-	8dd	-de-	.	.	.	.
.	.	4.cc#	-ya	4.cc#	-ya	.	.	.	.
2V7	E:9	.	.	.	.	.	.	.	voice
.	.	8b	de-	8b	de-	.	.	.	.
.	.	[8a	-ya	[8a	-ya	.	.	.	.
=112	=112	=112	=112	=112	=112	=112	=112	=112	=112
2iii7	C#:min7	4a]	_	4a]	_	.	.	.	voice
.	.	8b	de-	8b	de-	.	.	.	.
.	.	4f#	-ya	4f#	-ya	.	.	.	.
2vi7	F#:min7	.	.	.	.	.	.	.	voice
.	.	8r	.	8r	.	.	.	.	.
.	.	8b	de-	8b	de-	.	.	.	.
.	.	[8ee	-ya.]	[8a	-ya.]	.	.	.	.
=113	=113	=113	=113	=113	=113	=113	=113	=113	=113
1Im7	A:11	1ee_	_	1a_	_	.	.	.	voice
=114	=114	=114	=114	=114	=114	=114	=114	=114	=114
1Im7	A:11	2ee]	_	2a]	_	.	.	.	voice
.	.	2r	.	2r	.	.	.	.	.
*-	*-	*-	*-	*-	*-	*-	*-	*-	*-
!!!BillboardChartDate: 1979/01/06
!!!BillboardPeak: 8
!!!BillboardWeeksOnChart: 17
!!!COC: Earth, Wind & Fire
!!!EMD: The song is the key of A, not D, as the harmonic transcription originally had. (I also believe the A chord at the end of each phrase is not a dominant chord).
!!!EMD: This harmonic transcription was way too short. I added the material to match the correct recording (just repeating the same chord progression).
!!!ENC: Nathaniel Condit-Schultz
!!!EST: Awating manual error checking and editing.
!!!OTL: September
!!!RDF**harte: Chris Harte's syntax, used by MIREX
!!!RDF**harmony: **recip + pitch class of root + harmonic quality
!!!RDF**leadinstrument: original McGill primary instrumentation annotation
!!!RDF**phrase: newline = linebreak in original McGill transcription
!!!RDF**timestamp: McGill audio timestamp in seconds
!!!RDT: 2017/01/12/
!!!SampleActualRank: 15
!!!SampleID#: 0804
!!!SampleTargetRank: 16
!!!MBID: 661d35c3-6ade-4367-af96-6c2898149906
!!!EMD: Edited in humdrumR 0.7.0.3 on 2023-11-04
